!!!COM: Johann Sebastian Bach
!!!OTL: Wie bist du meine Seele
!!!system-decoration: [(s1,s2,s3,s4)]
**kern
*part1
*staff1
*I'S.
*I"Soprano
*clefG2
*k[f#]
*M4/4
4b
.
=1
4b
.
4a
.
2g
.
.
.
=2
4f#y;
.
4g
4a
.
.
4g
.
=3
4f#y
.
4f#y
.
4e;
4f#y
!!LO:LB
=4
4g
.
4a
.
2b
.
.
.
=5
4a;
4cc
.
4cc
.
4b
.
=6
4a
.
4a
.
4g;
4a
.
=7
4a
.
4a
.
4a
.
4f#y
.
!!LO:LB
=8
4g
.
4a
.
2b
.
.
.
=9
4a;
.
4f#y
.
4g
.
4a
.
=10
4b
.
4b
.
4a
.
8gL
8f#yJ
=11
2f#y
.
.
4e;
==
*-
